X: 21303
T: Kempshott Hunt
R: polka
M: 2/4
K: Dmajor
|:"D" A2 F/E/D|F/E/D FA|F/E/D FA|"C" GE "A" E2|
FA F/E/D|"D" FA A2|FA "G" GB|"A" AD "D" D2:|
|:"D" D/E/D AF|"G" BG "A" AF|"D" D/E/D AF|"C" GE E2|
"D" D/E/D AF|"G" BG "A" AF|"D" FA "G" GB|"A" AD "D" D2:|
|:"D" {c}d2 AF|{c}d2 AF|{c}d2 "A" AF|"C" GE E2|
"D" {c}d2 AF|{c}d2 AF|FA "G" GB|"A" AD "D" D2:|

